X:1
T:Merimna, 85.85 D
T:Merimna, 85.85 D
T:Eric Hubert Swinstead (1882-1950)
T:Public Domain Courtesy of the Cyber Hymnal™
C:Eric Hubert Swinstead (1882-1950)
Z:Public Domain
Z:Courtesy of the Cyber Hymnal™
%%score ( 1 2 ) ( 3 4 )
L:1/8
Q:1/4=125
M:9/8
K:A
V:1 treble 
V:2 treble 
V:3 bass 
V:4 bass 
V:1
 [A,C]2 [B,D] | [CE]3 [CE]3 [=C^D]2 [^CE] | [=CF]3 [^CE]3 [Ec]2 [EB] | [DA]6 [DF]3 | %4
 [CE]6 [G,B,]2 [G,C] | [G,D]3 [G,D]3 [G,C]2 [G,B,] | [A,C]3 [A,E]3 [EA]2 [EA] | [EB]6 [^DB]3 | %8
 [EB]3- [EB]2 [Ec] [Ec]2 [Dc] | [CA]3- [CA]2 [CA] [CG]2 [CF] | [DA]3 [DG]3 [DG]2 [DF] | %11
 [CE]6 [B,D]3 | [A,C]6 [A,C]2 [A,D] x | [A,E]3 [A,E]3 [A,^D]2 [A,E] | %14
 [DF]3 !fermata![Fd]3 [Fc]2 [FB] | e6 [DG]3 | [CA]6 |] %17
V:2
 x3 | x9 | x9 | x9 | x9 | x9 | x9 | x9 | x9 | x9 | x9 | x9 | x10 | x9 | x9 | (A3 G3) x3 | x6 |] %17
V:3
 [A,,E,]2 [A,,E,] | [A,,A,]3 [A,,A,]3 [A,,F,]2 [A,,E,] | [A,,^D,]3 [A,,E,]3 [A,,A,]2 [A,,G,] | %3
 [A,,F,]6 [A,,G,]3 | [A,,A,]6 [D,E,]2 [C,E,] | [B,,E,]3 [B,,E,]3 E,2 [D,E,] | %6
 [C,E,]3 [A,,C,]3 [C,A,]2 [C,A,] | [B,,G,]6 [B,,A,]3 | [E,G,]3- [E,G,]2 [E,G,] [E,G,]2 [E,G,] | %9
 [A,,E,]3 E,,3 [A,,E,]3 | [B,,E,]3 E,,3 E,3 | E,3 E,,3 E,3 | [A,,E,]6 E,2 [A,,B,,] x | %13
 [A,,C,]3 [A,,C,]3 [A,,=C,]2 [A,,^C,] | [D,A,]3 !fermata![D,A,]3 [D,D]2 [D,D] | (C3 B,3) E,3 | %16
 [A,,E,]6 |] %17
V:4
 x3 | x9 | x9 | x9 | x9 | x6 E,2 x | x9 | x9 | x9 | x3 E,,3 x3 | x3 E,,3 E,3 | E,3 E,,3 E,3 | %12
 x6 A,,4 | x9 | x9 | E,6 E,3 | x6 |] %17

